X: 40338
T: Tom Byrne's
R: reel
M: 4/4
K: Cmajor
|:E/^F/G|Adde d^cAG|^FADE =F2ED|C2 EC GCEC|G,C E/F/G AG E/F/G|
Adde fagf|ed^ce d=cAG|F2DE FAcA|GFEF D2:|
|:E/F/G|A2 dA eAdA|G/A/G ECG,C E/F/G|A2 fA eAdA|GEcE ED E/F/G|
A2 dA eAdA|G/A/G EC G,C E/F/G|A/c/A FA DAFA|1 GEcE ED:|2 GEcE ED D2||

